icons/Device/battery-saver-line.svg

<svg viewBox="0 0 24 24" xmlns="http://www.w3.org/2000/svg"><path d="M14 2C14.5523 2 15 2.44772 15 3V4H18C18.5523 4 19 4.44772 19 5V21C19 21.5523 18.5523 22 18 22H6C5.44772 22 5 21.5523 5 21V5C5 4.44772 5.44772 4 6 4H9V3C9 2.44772 9.44772 2 10 2H14ZM13 4H11V6H7V20H17V6H13V4ZM13 9V12H16V14H13V17H11V14H8V12H11V9H13Z"/></svg>

<svg xmlns="http://www.w3.org/2000/svg" viewBox="0 0 24 24">
    <g>
        <path fill="none" d="M0 0h24v24H0z"/>
        <path fill-rule="nonzero" d="M14 2a1 1 0 0 1 1 1v1h3a1 1 0 0 1 1 1v16a1 1 0 0 1-1 1H6a1 1 0 0 1-1-1V5a1 1 0 0 1 1-1h3V3a1 1 0 0 1 1-1h4zm-1 2h-2v2H7v14h10V6h-4V4zm0 5v3h3v2h-3v3h-2v-3H8v-2h3V9h2z"/>
    </g>
</svg>
